assets/images/logos/ScienceMuseum-logo.svg

<svg width="875" height="345" viewBox="0 0 875 345" fill="none" xmlns="http://www.w3.org/2000/svg">
<g clip-path="url(#clip0)">
<path fill-rule="evenodd" clip-rule="evenodd" d="M301.645 188.631V278.814C301.645 323.905 281.385 344.196 246.118 344.196C210.851 344.196 190.592 323.153 190.592 278.814V188.631H222.107V288.584C222.107 306.62 231.861 316.39 246.118 316.39C260.375 316.39 270.13 306.62 270.13 288.584V188.631H301.645ZM58.5281 124.752C64.531 124.752 71.2843 120.995 71.2843 113.479C71.2843 105.964 66.7821 101.455 42.7706 91.6854C14.2569 79.6611 2.25108 64.6307 2.25108 45.0912C2.25108 17.285 27.013 0 55.5267 0C84.7908 0 106.551 21.0426 110.303 51.1033H71.2843C70.5339 42.0851 66.0317 33.0669 54.026 33.0669C48.0231 33.0669 42.0202 36.8245 42.0202 43.5881C42.0202 49.6003 46.5224 54.8609 63.0303 62.3761C98.2972 77.4065 111.053 89.4308 111.053 111.976C111.053 139.031 87.7922 157.819 59.2785 157.819C27.013 157.819 1.50072 136.025 0 100.704H39.0188C39.0188 111.976 45.0216 124.752 58.5281 124.752ZM431.457 133.019V155.565H339.163V2.25456H431.457V24.8002H364.675V66.1337H427.706V88.6793H364.675V133.019H431.457ZM824.646 145.795V155.565H736.854V2.25456H824.646V12.0243H747.359V72.1459H821.645V81.9156H747.359V146.546H824.646V145.795ZM83.29 275.808L92.2944 248.753L116.306 188.631H156.075V341.941H120.058V269.796L115.556 289.335L96.0462 341.941H70.5339L51.0245 289.335L46.5224 269.796V341.941H9.75469V188.631H49.5238L73.5353 248.753L83.29 275.808ZM270.88 155.565V2.25456H301.645V155.565H270.88ZM185.339 157.819C150.823 157.819 130.563 134.522 130.563 80.4126V76.655C130.563 23.2971 150.823 0 185.339 0C217.605 0 238.615 19.5395 242.366 63.8792H204.848C203.348 41.3336 198.095 33.0669 186.84 33.0669C176.335 33.0669 170.332 39.8305 170.332 57.867V99.2006C170.332 117.237 176.335 124.001 186.84 124.001C197.345 124.001 203.348 116.486 204.848 93.1884H242.366C238.615 139.031 217.605 157.819 185.339 157.819ZM685.83 285.578V187.88H700.837V278.814C700.837 324.657 680.577 343.445 646.811 343.445C613.045 343.445 592.785 324.657 592.785 278.814V188.631H607.792V286.329C607.792 317.141 622.799 331.42 647.561 331.42C672.323 331.42 685.83 317.141 685.83 285.578ZM652.814 13.5274C629.553 13.5274 616.046 32.3153 616.046 63.1277V87.9278C616.046 124.752 627.302 144.292 652.814 144.292C672.323 144.292 685.079 132.267 688.831 103.71H703.838C700.837 137.528 682.828 157.819 652.814 157.819C619.048 157.819 600.289 132.267 600.289 88.6793V69.1398C600.289 26.3032 618.297 0 652.814 0C682.078 0 700.087 20.291 703.838 53.3579H688.831C685.079 26.3032 673.074 13.5274 652.814 13.5274ZM859.163 188.631H872.669V341.941H862.164V208.922L811.14 341.941H798.384L747.359 208.922V341.941H736.854V188.631H750.361L805.137 329.917L859.163 188.631ZM526.003 188.631H555.267H559.769V207.419H555.267H526.003H484.733V254.765H526.003H550.014H554.517V273.553H550.014H526.003H484.733V323.154H526.003H555.267H559.769V341.941H555.267H526.003H464.473V188.631H526.003ZM397.691 255.517C423.954 266.038 434.459 279.565 434.459 301.359C434.459 326.911 413.449 344.196 384.935 344.196C354.17 344.196 330.909 325.408 327.157 290.838H354.921C357.922 311.129 367.677 321.65 384.935 321.65C398.442 321.65 406.696 314.887 406.696 302.862C406.696 292.341 402.193 284.826 383.434 277.311L367.677 270.547C340.664 259.274 330.159 245.747 330.159 227.71C330.159 204.413 350.418 186.377 380.433 186.377C409.697 186.377 428.456 204.413 432.208 234.474H405.195C402.944 218.692 395.44 208.922 378.932 208.922C366.176 208.922 357.172 216.438 357.172 226.959C357.172 234.474 360.923 240.486 377.431 247.25L397.691 255.517ZM548.514 118.74V2.25456H569.524V155.565H547.763L491.486 54.8609L484.733 37.576V154.813H463.723V2.25456H486.234L541.76 102.207L548.514 118.74Z" fill="black"/>
</g>
<defs>
<clipPath id="clip0">
<rect width="875" height="345" fill="white"/>
</clipPath>
</defs>
</svg>

<svg id="Layer_1" data-name="Layer 1" xmlns="http://www.w3.org/2000/svg" xmlns:xlink="http://www.w3.org/1999/xlink" viewBox="0 0 872.67 344.2"><defs><style>.cls-1{fill:none;}.cls-2{clip-path:url(#clip-path);}.cls-3{fill-rule:evenodd;}</style><clipPath id="clip-path"><rect class="cls-1" width="875" height="345"/></clipPath></defs><g class="cls-2"><path class="cls-3" d="M301.64,188.63v90.18c0,45.09-20.25,65.39-55.52,65.39s-55.53-21.05-55.53-65.39V188.63h31.52v99.95c0,18,9.75,27.81,24,27.81s24-9.77,24-27.81V188.63ZM58.53,124.75c6,0,12.75-3.75,12.75-11.27s-4.5-12-28.51-21.79c-28.51-12-40.52-27.06-40.52-46.6C2.25,17.28,27,0,55.53,0c29.26,0,51,21,54.77,51.1h-39c-.75-9-5.25-18-17.25-18-6,0-12,3.75-12,10.52,0,6,4.5,11.27,21,18.79,35.27,15,48,27.05,48,49.6,0,27.05-23.26,45.84-51.77,45.84C27,157.82,1.5,136,0,100.7H39C39,112,45,124.75,58.53,124.75ZM431.46,133v22.55h-92.3V2.25h92.3V24.8H364.67V66.13h63V88.68h-63V133Zm393.19,12.77v9.78h-87.8V2.25h87.8V12H747.36V72.15h74.29v9.77H747.36v64.63h77.29Zm-741.36,130,9-27.06,24-60.12h39.76V341.94h-36V269.8l-4.5,19.53L96.05,341.94H70.53L51,289.33l-4.5-19.53v72.14H9.75V188.63H49.52l24,60.12ZM270.88,155.57V2.25h30.76V155.57Zm-85.54,2.25c-34.52,0-54.78-23.3-54.78-77.41V76.65C130.56,23.3,150.82,0,185.34,0c32.26,0,53.28,19.54,57,63.88H204.85c-1.5-22.55-6.75-30.81-18-30.81-10.5,0-16.51,6.76-16.51,24.8V99.2c0,18,6,24.8,16.51,24.8s16.51-7.51,18-30.81h37.52C238.62,139,217.6,157.82,185.34,157.82ZM685.83,285.58v-97.7h15v90.93c0,45.85-20.26,64.64-54,64.64s-54-18.79-54-64.64V188.63h15v97.7c0,30.81,15,45.09,39.77,45.09S685.83,317.14,685.83,285.58Zm-33-272c-23.26,0-36.76,18.79-36.76,49.6v24.8c0,36.82,11.25,56.36,36.76,56.36,19.51,0,32.27-12,36-40.58h15c-3,33.82-21,54.11-51,54.11-33.76,0-52.52-25.55-52.52-69.14V69.14C600.29,26.3,618.3,0,652.81,0c29.27,0,47.28,20.29,51,53.36h-15C685.08,26.3,673.07,13.53,652.81,13.53Zm206.35,175.1h13.51V341.94H862.16v-133l-51,133H798.38l-51-133v133H736.85V188.63h13.51l54.78,141.29Zm-333.16,0h33.77v18.79h-75v47.34h69.79v18.79H484.73v49.6h75v18.79h-95.3V188.63ZM397.69,255.52c26.26,10.52,36.77,24,36.77,45.84,0,25.55-21,42.84-49.53,42.84-30.76,0-54-18.79-57.77-53.36h27.76c3,20.29,12.76,30.81,30,30.81,13.51,0,21.77-6.76,21.77-18.79,0-10.52-4.51-18-23.27-25.55l-15.75-6.76c-27-11.28-37.52-24.8-37.52-42.84,0-23.3,20.26-41.33,50.27-41.33,29.27,0,48,18,51.78,48.09h-27c-2.26-15.78-9.76-25.55-26.27-25.55-12.75,0-21.76,7.52-21.76,18,0,7.51,3.75,13.53,20.26,20.29ZM548.51,118.74V2.25h21V155.57H547.76L491.49,54.86l-6.76-17.28V154.81h-21V2.25h22.51l55.53,100Z"/></g></svg>
